!!!COM: Mozart, Wolfgang Amadeus
!!!CDT: 1756/01/27/-1791/12/05/
!!!CNT: German
!!!OTL: Piano Sonata No. 8 in A minor
!!!SCT1: K<sup>1</sup> 310
!!!SCT2: K<sup>6</sup> 300d
!!!OMV: 1
!!!OMD: Allegro maestoso
!!!ODT: 1778///
**kern	**kern	**dynam
*staff2	*staff1	*staff1/2
*>[A,A,B,B]	*>[A,A,B,B]	*>[A,A,B,B]
*>norep[A,B]	*>norep[A,B]	*>norep[A,B]
*>A	*>A	*>A
*clefF4	*clefG2	*clefG2
*k[]	*k[]	*k[]
*a:	*a:	*a:
*M4/4	*M4/4	*M4/4
*met(c)	*met(c)	*met(c)
*MM120	*MM120	*MM120
=1-	=1-	=1-
.	16dd#qq	.
8A 8c 8eL	4ee	f
8A 8c 8e	.	.
8A 8c 8e	8.eeL	.
8A 8c 8eJ	.	.
.	16eeJk	.
8A 8c 8eL	4ee	.
8A 8c 8e	.	.
8A 8c 8e	8.ccL>	.
8A 8c 8eJ	.	.
.	16aJk	.
=2	=2	=2
.	16aqq	.
8A 8B 8d 8eL	4g#	.
8A 8B 8d 8e	.	.
8A 8B 8d 8e	2g#	.
8A 8B 8d 8eJ	.	.
8A 8B 8d 8eL	.	.
8A 8B 8d 8e	.	.
8A 8B 8d 8e	(8.ddL	.
8A 8B 8d 8eJ	.	.
.	16bJk	.
=3	=3	=3
8A 8c 8eL	4ee)	.
8A 8c 8e	.	.
8A 8c 8e	8.eeL	.
8A 8c 8eJ	.	.
.	16eeJk	.
8A 8c 8eL	(8eeL	.
8A 8c 8e	16ffL	.
.	16eeJJ	.
8A 8c 8e	16ddLL	.
.	16cc	.
8A 8c 8eJ	16b)	.
.	16aJJ	.
=4	=4	=4
.	16aqq	.
8A 8B 8d 8eL	4g#	.
8A 8B 8d 8e	.	.
8A 8B 8d 8e	2g#	.
8A 8B 8d 8eJ	.	.
8A 8B 8d 8eL	.	.
8A 8B 8d 8e	.	.
8A 8B 8d 8e	(8.ddL	.
8A 8B 8d 8eJ	.	.
.	16bJk)	.
=5	=5	=5
8A 8c 8e	8.cc (8.eeL	.
8AL	.	.
.	16a 16ccJk)	.
8E	4cc 4ee	.
8CJ	.	.
4AA	8r	.
.	8a' 8cc'L	p
4r	8b' 8dd'	.
.	8cc' 8ee'J	.
=6	=6	=6
*^	*	*
4ryy	4r	4cc# (4ee	.
[4d	(4F 4A 4cn	8dd 8ff)	.
.	.	8r	.
8d]	8G 8B)	8r	.
8ryy	8r	8g' 8b'L	.
4ryy	4r	8a' 8ccn'	.
.	.	8b' 8dd'J	.
=7	=7	=7	=7
4ryy	4r	4b (4dd#	.
[4c	(4E 4G 4B	8cc 8ee)	.
.	.	8r	.
8c]	8F) 8A	8r	.
8ryy	8r	8f' 8a'L	.
4ryy	4r	8g#' 8b'	.
.	.	8a' 8cc'J	.
*v	*v	*	*
=8	=8	=8
4r	(8.ccL	.
.	16bk	.
4D 4F (4B	8.ff	.
.	16ddnJk	.
4E 4A 4c	8.ccL	.
.	16eek	.
4E 4G# 4B)	8.dd	.
.	16bJk)	.
=9	=9	=9
.	16dd#qq	.
8A 8c 8eL	4ee	f
8A 8c 8e	.	.
8A 8c 8e	8.eeL	.
8A 8c 8eJ	.	.
.	16eeJk	.
8A 8c 8eL	(8eeL	.
8A 8c 8e	16ffL	.
.	16eeJJ	.
8A 8c 8e	16ddnLL	.
.	16cc	.
8A 8c 8eJ	16b	.
.	16aJJ)	.
=10	=10	=10
8A 8B 8d 8fL	(8aL	.
8A 8B 8d 8f	8g#J)	.
8A 8B 8d 8f	[4g#	.
8A 8B 8d 8fJ	.	.
8A 8B 8d 8fL	8.g#L]	.
8A 8B 8d 8f	.	.
.	(16g#k	.
8A 8B 8d 8f	8.dd)	.
8A 8B 8d 8fJ	.	.
.	(16bJk	.
=11	=11	=11
8A 8c 8eL	4ee)	.
8A 8c 8e	.	.
8A 8c 8e	8.eeL	.
8A 8c 8eJ	.	.
.	16eeJk	.
8A 8c 8eL	(16dd#LL	.
.	16ee	.
8A 8c 8e	16ff	.
.	16eeJJ	.
8A 8c 8e	16ddnLL	.
.	16cc	.
8A 8c 8eJ	16b	.
.	16aJJ	.
=12	=12	=12
8Gn 8B- 8c 8eL	8ccL	.
8G 8B- 8c 8e	8b-J)	.
8G 8B- 8c 8e	[4b-	.
8G 8B- 8c 8eJ	.	.
8G 8B- 8c 8eL	8.b-L]	.
8G 8c 8e	.	.
.	(16eek	.
8G 8B- 8c 8e	8.gg)	.
8G 8B- 8c 8eJ	.	.
.	16bb-'Jk	.
=13	=13	=13
8F 8c 8fL	(8bb-L	.
8F 8c 8f	8aa)	.
8F 8A 8d	8ff'	.
8F 8A 8dJ	8dd'J	.
8E 8G 8AL	(8ddL	.
8E 8G 8A	8cc#)	.
8E 8A 8c#	8ee'	.
8E 8A 8c#J	8gg'J	.
=14	=14	=14
4D 4A 4d	(8ggL	.
.	8ff#J)	.
!	!LO:TX:i:t=calando	!
4BBn 4D 4G	8r	.
.	8ffn	.
4Cn 4G	8r	.
.	8dd#	.
4A 4c	8r	.
.	8ee	.
=15	=15	=15
(8FL	(8eeL	p
8A	8ddnJ)	.
8F	(4.dd	.
8AJ	.	.
8FL	.	.
8A	16eeLL	.
.	16ddJJ)	.
8F#	(16ddLL	.
.	16cc	.
8AJ)	16b	.
.	16ccJJ	.
=16	=16	=16
!LO:TX:i:t=legato	!	!
16GLL	4b)	f
16d	.	.
16B	.	.
16dJJ	.	.
16GLL	8.ggL	f
16d	.	.
16B	.	.
16dJJ	16ggJk	.
16GLL	4gg	.
16e-	.	.
16c	.	.
16e-JJ	.	.
16GLL	4gg	.
16fn	.	.
16d	.	.
16fJJ	.	.
=17	=17	=17
*	*^	*
16GLL	(4.ccc	1cc	.
16e-	.	.	.
16c	.	.	.
16e-JJ	.	.	.
16GLL	.	.	.
16e-	.	.	.
16c	16bb-LL	.	.
16e-JJ	16aa-JJ	.	.
16GLL	4gg	.	.
16e-	.	.	.
16c	.	.	.
16e-JJ	.	.	.
16GLL	4ff#)	.	.
16e-	.	.	.
16c	.	.	.
16e-JJ	.	.	.
*	*v	*v	*
=18	=18	=18
16GLL	4bn 4gg	.
16d	.	.
16B	.	.
16dJJ	.	.
16GLL	8.ggL	p
16d	.	.
16B	.	.
16dJJ	16ggJk	.
16GLL	4gg	.
16e-	.	.
16c	.	.
16e-JJ	.	.
16GLL	4gg	.
16fn	.	.
16d	.	.
16fJJ	.	.
=19	=19	=19
*	*^	*
16GLL	(4.ccc	1cc	.
16e-	.	.	.
16c	.	.	.
16e-JJ	.	.	.
16GLL	.	.	.
16e-	.	.	.
16c	16bb-LL	.	.
16e-JJ	16aa-JJ	.	.
16GLL	4gg	.	.
16e-	.	.	.
16c	.	.	.
16e-JJ	.	.	.
16GLL	4ff#)	.	.
16e-	.	.	.
16c	.	.	.
16e-JJ	.	.	.
*	*v	*v	*
=20	=20	=20
4G 4B 4d	(>16ggLL	f
.	16dd	.
.	16bn	.
.	16ddJJ	.
8r	16ggLL	.
.	16ee-	.
8C 8c	16cc	.
.	16ee-JJ	.
4GG 4G	16ggLL	.
.	16dd	.
.	16b	.
.	16ddJJ	.
8r	16ggLL	.
.	16ee-	.
8C 8c	16cc	.
.	16ee-JJ	.
=21	=21	=21
*	*^	*
4GG 4G	2ryy	16ggLL	.
.	.	16dd	.
.	.	16b	.
.	.	16ddJJ	.
8r	.	16ggLL	.
.	.	16ee-	.
8C 8c	.	16cc	.
.	.	16ee-JJ	.
8GG 8GL	16ddLL	8bL	.
.	16gg	.	.
8C 8c	16ee-	8cc	.
.	16ggJJ	.	.
8GG 8G	16ddLL	8b	.
.	16gg	.	.
8C 8cJ	16ee-	8ccJ	.
.	16ggJJ	.	.
=22	=22	=22	=22
4GG 4G	4dd)	4b	.
4GGG 4GG	2.ryy	4g: 4b: 4dd: 4gg:	.
4GGG 4GG	.	8r	.
.	.	8gg'L	p
4r	.	8aa'	.
.	.	8bb'J	.
*	*v	*v	*
*clefG2	*	*
=23	=23	=23
8en 8gL	(16cccLL	.
.	16ddd	.
8e 8g	16bb	.
.	16dddJJ	.
8e 8g	16cccLL	.
.	16ddd	.
8e 8gJ	16bb	.
.	16dddJJ	.
4e 4g	16cccLL	.
.	16ddd	.
.	16bb	.
.	16cccJJ	.
4r	16aaLL	.
.	16bb	.
.	16gg	.
.	16aaJJ	.
=24	=24	=24
8d 8aL	16ffLL	.
.	16gg	.
8d 8a	16een	.
.	16ggJJ	.
8d 8a	16ffLL	.
.	16gg	.
8d 8aJ	16ee	.
.	16ggJJ	.
4d 4a	16ffLL	.
.	16gg	.
.	16ee	.
.	16ffJJ	.
4r	16ddLL	.
.	16ee	.
.	16cc	.
.	16ddJJ	.
*clefF4	*	*
=25	=25	=25
8G 8d 8fL	16bLL	.
.	16cc	.
8G 8d 8f	16a	.
.	16ccJJ	.
8G 8d 8f	16bLL	.
.	16cc	.
8G 8d 8fJ	16a	.
.	16ccJJ	.
4G 4d 4f	16bLL	.
.	16cc	.
.	16a	.
.	16bJJ	.
4r	16gLL	.
.	16a	.
.	16f	.
.	16gJJ	.
=26	=26	=26
4c	16eLL	.
.	16g	.
.	16f	.
.	16eJJ	.
4r	16fLL	.
.	16g	.
.	16a	.
.	16bJJ	.
2r	16ccLL	.
.	16dd	.
.	16cc	.
.	16bJJ	.
.	16ccLL	.
.	16dd	.
.	16ee	.
.	16ffJJ)	.
=27	=27	=27
8E 8cL	(16ggLL	.
.	16aa	.
8E 8c	16ff#	.
.	16aaJJ	.
8E 8c	16ggLL	.
.	16aa	.
8E 8cJ	16ff#	.
.	16aaJJ	.
4E 4c	16ggLL	.
.	16ccc	.
.	16bb	.
.	16cccJJ	.
4r	16dddLL	.
.	16ccc	.
.	16bb	.
.	16cccJJ	.
=28	=28	=28
*^	*	*
4r	2.F	16bbLL	.
.	.	16aa	.
.	.	16gg#	.
.	.	16aaJJ	.
4A	.	16ggnLL	.
.	.	16ffn	.
.	.	16ee	.
.	.	16ffJJ	.
[2d	.	16eeLL	.
.	.	16dd	.
.	.	16cc#	.
.	.	16ddJJ	.
.	4F	16cc#LL	.
.	.	16dd	.
.	.	16ee	.
.	.	16ffJJ	.
=29	=29	=29	=29
4d]	2.E	16aaLL	.
.	.	16gg	.
.	.	16ff#	.
.	.	16ggJJ	.
4G	.	16ffnLL	.
.	.	16ee	.
.	.	16dd	.
.	.	16eeJJ	.
[2c	.	16ddLL	.
.	.	16ccn	.
.	.	16b	.
.	.	16ccJJ	.
.	4E	16bLL	.
.	.	16cc	.
.	.	16dd	.
.	.	16eeJJ	.
=30	=30	=30	=30
4c]	4D	16ffLL	.
.	.	16gg	.
.	.	16ee	.
.	.	16ffJJ	.
4A	4F	16ddLL	.
.	.	16ee	.
.	.	16cc	.
.	.	16ddJJ	.
[2G	4G	16bLL	.
.	.	16cc	.
.	.	16a	.
.	.	16bJJ	.
.	4BB	16gLL	.
.	.	16a	.
.	.	16f	.
.	.	16gJJ	.
=31	=31	=31	=31
4G]	4C	16eLL	.
.	.	16g	.
.	.	16f	.
.	.	16eJJ	.
2G	4D	16fLL	.
.	.	16g	.
.	.	16a	.
.	.	16bJJ	.
.	2E	16ccLL	.
.	.	16dd	.
.	.	16ee	.
.	.	16ddJJ	.
[4c	.	16ccLL<	.
.	.	16b-	.
.	.	16a	.
.	.	16g#JJ	.
=32	=32	=32	=32
4c]	4F	16aLL	.
.	.	16bn	.
.	.	16cc	.
.	.	16bJJ	.
2.ryy	4r	16ccLL	.
.	.	16cc#	.
.	.	16dd	.
.	.	16cc#JJ	.
.	2r	16ddLL	.
.	.	16ee	.
.	.	16ff	.
.	.	16eeJJ	.
.	.	16ffLL	.
.	.	16gg#	.
.	.	16aa	.
.	.	16gg#JJ	.
*v	*v	*	*
=33	=33	=33
(16FLL	16aaLL	.
16d	16bb	.
16A	16cccn	.
16dJJ	16bbJJ	.
16FLL	16cccLL	.
16d	16bb	.
16A	16ccc	.
16dJJ	16bbJJ	.
16FLL	16dddLL	.
16d	16ccc	.
16A	16bb	.
16dJJ	16aaJJ	.
16FLL	16bbLL	.
16d	16aa	.
16A	16gg	.
16dJJ	16ffJJ	.
=34	=34	=34
16GLL	16eeLL	.
16e	16gg	.
16c	16aa	.
16eJJ	16ggJJ	.
16GLL	16ffLL	.
16e	16ee	.
16c	16dd	.
16eJJ	16ccJJ)	.
16GLL	2ddTT	.
16f	.	.
16B	.	.
16fJJ	.	.
16GLL	.	.
16f	.	.
16B	.	.
16fJJ	.	.
.	(16ccqLL	.
.	16ddqJJ)	.
=35	=35	=35
4c 4e)	16r	.
.	(16cccLL	.
.	16bb	.
.	16aaJJ	.
4r	16ggLL	.
.	16aa	.
.	16ff#	.
.	16aaJJ	.
4r	16ggLL	.
.	16aa	.
.	16ff#	.
.	16aaJJ	.
*clefG2	*	*
8b'L	16ggLL	.
.	16aa	.
8g'J	16ffn	.
.	16ggJJ	.
=36	=36	=36
4cc	16eeLL)	.
.	(16ccc	.
.	16bb	.
.	16aaJJ	.
4r	16ggLL	.
.	16aa	.
.	16ff#	.
.	16aaJJ	.
4r	16ggLL	.
.	16aa	.
.	16ff#	.
.	16aaJJ	.
8b'L	16ggLL	.
.	16aa	.
8g'J	16ffn	.
.	16ggJJ	.
=37	=37	=37
*^	*	*
2ryy	4cc	16eeLL	.
.	.	16ff	.
.	.	16dd	.
.	.	16eeJJ	.
.	4r	16ccLL	.
.	.	16dd	.
.	.	16b	.
.	.	16ccJJ	.
*v	*v	*	*
*clefF4	*	*
*^	*	*
4c	2E	16aLL	.
.	.	16b	.
.	.	16g	.
.	.	16aJJ	.
4G	.	16fLL	.
.	.	16g	.
.	.	16e	.
.	.	16fJJ	.
=38	=38	=38	=38
2A	2F	8dL	.
.	.	16eL	.
.	.	16fJJ	.
.	.	16gLL	.
.	.	16a	.
.	.	16b	.
.	.	16ccJJ	.
2G 2B	2F	16ddLL	.
.	.	16ee	.
.	.	16ff	.
.	.	16ggJJ	.
.	.	16aaLL	.
.	.	16bb	.
.	.	16ccc	.
.	.	16dddJJ	.
=39	=39	=39	=39
4c	4E 4G	16eeeLL	.
.	.	16ccc	.
.	.	16bb	.
.	.	16cccJJ	.
2c	4F	16bbLL	.
.	.	16aa	.
.	.	16gg	.
.	.	16ffJJ	.
.	4G	4ee)	.
4B	4G	4ddTT	.
.	.	(16ccqLL	.
.	.	16ddqJJ)	.
*v	*v	*	*
*clefG2	*	*
=40	=40	=40
16r	4cc	p
(16ccLL>	.	.
16b	.	.
16aJJ	.	.
16gLL	4r	.
16a	.	.
16f#	.	.
16aJJ	.	.
16gLL	4r	.
16a	.	.
16f#	.	.
16aJJ	.	.
16gLL	8dd' 8bb'L	.
16a	.	.
16fn	8gg'J	.
16gJJ	.	.
=41	=41	=41
16eLL)	4ee 4ccc	.
(>16cc	.	.
16b	.	.
16aJJ	.	.
16gLL	4r	.
16a	.	.
16f#	.	.
16aJJ	.	.
16gLL	4r	.
16a	.	.
16f#	.	.
16aJJ	.	.
16gLL	8dd' 8bb'L	.
16a	.	.
16fn	8gg'J	.
16gJJ	.	.
*clefF4	*	*
=42	=42	=42
*	*^	*
16eLL	4ryy	4ee 4ccc	.
16f	.	.	.
16d	.	.	.
16eJJ	.	.	.
16cLL	(8.ggTL	4r	.
16d	.	.	.
16B	.	.	.
16cJJ	32ff#LL	.	.
.	32ggJJJ	.	.
16ALL	[2ccc)	4r	.
16B	.	.	.
16G	.	.	.
16AJJ	.	.	.
16FLL	.	8.eet>L	.
16G	.	.	.
16E	.	.	.
16FJJ	.	32ddLL	.
.	.	32eeJJJ	.
=43	=43	=43	=43
16DLL	4ccc]	2.ffn	.
16E	.	.	.
16C	.	.	.
16DJJ	.	.	.
16BBLL	(8.dddL	.	.
16C	.	.	.
16AA	.	.	.
16BBJJ	16eeeJk	.	.
16GGLL	4fff)	.	.
16AA	.	.	.
16FF	.	.	.
16GGJJ	.	.	.
16EELL	(8.bbtL	[4gg	.
16FF	.	.	.
16DD	.	.	.
16FFJJ	32aaLL	.	.
.	32bbJJJ)	.	.
=44	=44	=44	=44
8EE)	(16cccLL	16gg]	.
.	16bb	8.ryy	.
8r	16ccc	.	.
.	16ggJJ)	.	.
8FF	(16bbLL	8dd	.
.	16aa	.	.
8r	16gg	8ryy	.
.	16ffJJ)	.	.
8GG	(16eeLL	16cc	.
.	16ff	8.ryy	.
8r	16gg	.	.
.	16eeJJ)	.	.
8GGG	(16ddLL	16b	.
.	16ee	8.ryy	.
8r	16ff	.	.
.	16ddJJ)	.	.
*	*v	*v	*
=45	=45	=45
(16cLL	4cc	.
16d	.	.
16e	.	.
16dJJ	.	.
16cLL	8.cc 8.eeL	.
16B	.	.
16A	.	.
16G#JJ	16cc 16eeJk	.
16ALL	4cc 4ee	.
16B	.	.
16c	.	.
16BJJ	.	.
16ALL	8.cc 8.eeL	.
16Gn	.	.
16F	.	.
16EJJ	16cc 16eeJk	.
=46	=46	=46
16FLL	4cc 4dd	.
16G	.	.
16A	.	.
16GJJ	.	.
16FLL	8.cc 8.ddL	.
16D	.	.
16E	.	.
16FJJ	16cc 16ddJk	.
16GLL	4b 4dd	.
16F#	.	.
16G	.	.
16F#JJ	.	.
16GLL	8.b 8.ggL	.
16Fn	.	.
16E	.	.
16DJJ)	16b 16ggJk	.
=47	=47	=47
(16CLL>	4cc 4ee	.
16D	.	.
16E	.	.
16DJJ	.	.
16CLL	8.cc 8.ee 8.cccL	.
16BB	.	.
16AA	.	.
16GG#JJ	16cc 16ee 16cccJk	.
16AALL	4cc 4ee 4ccc	.
16BB	.	.
16C	.	.
16BBJJ	.	.
16AALL	8.cc 8.ee 8.cccL	.
16GGn	.	.
16FF	.	.
16EEJJ	16cc 16ee 16cccJk	.
=48	=48	=48
16FFLL	4dd 4aa 4ccc	.
16GG	.	.
16AA	.	.
16GGJJ	.	.
16FFLL	8.dd 8.aa 8.cccL	.
16DD	.	.
16EE	.	.
16FFJJ	16dd 16aa 16cccJk	.
16GGLL	4dd 4gg 4bb	.
16FF#	.	.
16GG	.	.
16FF#JJ	.	.
16GGLL	8.dd 8.gg 8.bbL	.
16FFn	.	.
16EE	.	.
16DDJJ	16dd 16gg 16bbJk	.
=49	=49	=49
4CC)	4ee: 4gg: 4ccc:	.
4CC 4C	4cc: 4ee: 4gg:	.
4CC 4C	4g: 4cc: 4ee:	.
4r	4r	.
=50:|!	=50:|!	=50:|!
*>B	*>B	*>B
*clefG2	*	*
.	16ff#qq	.
8c 8e 8gL	4gg	.
8c 8e 8g	.	.
8c 8e 8g	8.ggL	.
8c 8e 8gJ	.	.
.	16ggJk	.
8c 8e 8gL	4gg	.
8c 8e 8g	.	.
8c 8e 8g	(8.eeL	.
8c 8e 8gJ	.	.
.	16ccJk)	.
=51	=51	=51
.	16ccqq	.
8c 8d 8f 8gL	4b	.
8c 8d 8f 8g	.	.
8c 8d 8f 8g	2b	.
8c 8d 8f 8gJ	.	.
8c 8d 8f 8gL	.	.
8c 8d 8f 8g	.	.
8c 8d 8f 8g	(8.ffL	.
8c 8d 8f 8gJ	.	.
.	16ddJk	.
=52	=52	=52
8c 8e 8gL	4gg)	.
8c 8e 8g	.	.
8c 8e 8g	8.ggL	.
8c 8e 8gJ	.	.
.	16ggJk	.
8c 8e 8gL	(8ggL	.
8c 8e 8g	16aaL	.
.	16ggJJ	.
8c 8e 8g	16ffLL	.
.	16ee	.
8c 8e 8gJ	16dd	.
.	16ccJJ)	.
=53	=53	=53
.	16ccqq	.
8d- 8e 8gL	4b-	.
8d- 8e 8g	.	.
8d- 8e 8g	4.b-	.
8d- 8e 8gJ	.	.
8d- 8e 8gL	.	.
8d- 8e 8g	(8dd-L	.
8d- 8e 8g	8ee	.
8d- 8e 8gJ	8ggJ)	.
=54	=54	=54
8c 8e 8gL	(8bb-L	fp
8c 8e 8g	8gg	.
8c 8e 8g	8ee	.
8c 8e 8gJ	8ccJ	.
8d- 8e 8gL	8b-L	.
8d- 8e 8g	8dd-	.
8d- 8e 8g	8ee	.
8d- 8e 8gJ	8ggJ)	.
=55	=55	=55
8c 8e 8gL	(8bb-L	fp
8c 8e 8g	8gg	.
8c 8e 8g	8ee	.
8c 8e 8gJ	8ccJ	.
8c# 8e 8gL	8b-L	.
8c# 8e 8g	8cc#	.
8c# 8e 8g	8ee	.
8c# 8e 8gJ	8ggJ)	.
=56	=56	=56
4cn 4e 4g	(16bb-LL	f
.	16gg	.
.	16ee	.
.	16ccnJJ	.
4r	16ggLL	.
.	16ee	.
.	16cc	.
.	16b-JJ	.
2r	16eeLL	.
.	16cc	.
.	16b-	.
.	16gJJ	.
.	16ccLL	.
.	16b-	.
.	16g	.
.	16eJJ	.
*clefF4	*	*
=57	=57	=57
1CC 1EE 1GG 1AA#	16a#LL	.
.	16g	.
.	16e	.
.	16cJJ	.
.	16gLL	.
.	16e	.
.	16c	.
.	16BnJJ	.
.	16A#'LL)	.
.	(16g	.
.	16f#	.
.	16gJJ	.
.	16anLL	.
.	16g	.
.	16f#	.
.	16eJJ)	.
=58	=58	=58
*	*^	*
!LO:TX:i:t=legato	!	!	!
16BBBLL	4d# 4b	2.ryy	ff
16BB	.	.	.
16AA#	.	.	.
16BBJJ	.	.	.
16AA#LL	8.d# 8.bL	.	.
16BB	.	.	.
16AA#	.	.	.
16BBJJ	16d# 16bJk	.	.
16BBBLL	4d# 4b	.	.
16BB	.	.	.
16AA#	.	.	.
16BBJJ	.	.	.
16AA#LL	4b	4d# 4b	.
16BB	.	.	.
16AA#	.	.	.
16BBJJ	.	.	.
=59	=59	=59	=59
16BBBLL	2e [2ccn	8.bL	.
16BB	.	.	.
16AA#	.	.	.
16BBJJ	.	16bk	.
16AA#LL	.	8.an	.
16BB	.	.	.
16AA#	.	.	.
16BBJJ	.	16g#Jk	.
16BBBLL	8.ccL]	2f# [2a	.
16BB	.	.	.
16AA#	.	.	.
16BBJJ	16dd#k	.	.
16AA#LL	8.ee	.	.
16BB	.	.	.
16AA#	.	.	.
16BBJJ	16ccJk	.	.
=60	=60	=60	=60
16BBBLL	2d# [2b	8.aL]	.
16BB	.	.	.
16AA#	.	.	.
16BBJJ	.	16ak	.
16AA#LL	.	8.gn	.
16BB	.	.	.
16AA#	.	.	.
16BBJJ	.	16f#Jk	.
16BBBLL	8.bL]	2e 2g	.
16BB	.	.	.
16AA#	.	.	.
16BBJJ	16dd#k	.	.
16AA#LL	8.ee	.	.
16BB	.	.	.
16AA#	.	.	.
16BBJJ	16bJk	.	.
=61	=61	=61	=61
16BBBLL	2c# [2a	8.gL	.
16BB	.	.	.
16AA#	.	.	.
16BBJJ	.	16gk	.
16AA#LL	.	8.f#	.
16BB	.	.	.
16AA#	.	.	.
16BBJJ	.	16eJk	.
16BBBLL	8.aL]	2d# 2f#	.
16BB	.	.	.
16AA#	.	.	.
16BBJJ	16bk	.	.
16AA#LL	8.ccn	.	.
16BB	.	.	.
16AA#	.	.	.
16BBJJ	16aJk	.	.
=62	=62	=62	=62
16EELL	4g#	4e	pp
16E	.	.	.
16D#	.	.	.
16EJJ	.	.	.
16D#LL>	2ryy	8.g# 8.eeL	.
16E	.	.	.
16D#	.	.	.
16EJJ	.	16g# 16eeJk	.
16EELL	.	4g# 4ee	.
16E	.	.	.
16D#	.	.	.
16EJJ	.	.	.
16D#LL>	4ee	4g# 4ee	.
16E	.	.	.
16D#	.	.	.
16EJJ	.	.	.
=63	=63	=63	=63
16EELL	2a [2ffn	8.eeL	.
16E	.	.	.
16D#	.	.	.
16EJJ	.	16eek	.
16D#LL>	.	8.ddn	.
16E	.	.	.
16D#	.	.	.
16EJJ	.	16cc#Jk	.
16EELL	8.ffL]	2b 2dd	.
16E	.	.	.
16D#	.	.	.
16EJJ	16gg#k	.	.
16D#LL>	8.aa	.	.
16E	.	.	.
16D#	.	.	.
16EJJ	16ffJk	.	.
=64	=64	=64	=64
16EELL	2g# [2ee	8.ddL	.
16E	.	.	.
16D#	.	.	.
16EJJ	.	16ddk	.
16D#LL>	.	8.ccn	.
16E	.	.	.
16D#	.	.	.
16EJJ	.	16bJk	.
16EELL	8.eeL]	2a [2cc	.
16E	.	.	.
16D#	.	.	.
16EJJ	16gg#k	.	.
16D#LL>	8.aa	.	.
16E	.	.	.
16D#	.	.	.
16EJJ	16eeJk	.	.
=65	=65	=65	=65
16EELL	2f# [2dd	8.ccL]	.
16E	.	.	.
16D#	.	.	.
16EJJ	.	16cck	.
16D#LL>	.	8.b	.
16E	.	.	.
16D#	.	.	.
16EJJ	.	16aJk	.
16EELL	8.ddL]	2g# 2b	.
16E	.	.	.
16D#	.	.	.
16EJJ	16eek	.	.
16D#LL>	8.ffn	.	.
16E	.	.	.
16D#	.	.	.
16EJJ	16ddJk	.	.
=66	=66	=66	=66
16AALL	4cc#	4a	ff
16A	.	.	.
16G#	.	.	.
16AJJ	.	.	.
16G#LL	2ryy	8.cc# 8.aaL	.
16A	.	.	.
16G#	.	.	.
16AJJ	.	16cc# 16aaJk	.
16AALL	.	4cc# 4aa	.
16A	.	.	.
16G#	.	.	.
16AJJ	.	.	.
16G#LL	4aa	4cc# 4aa	.
16A	.	.	.
16G#	.	.	.
16AJJ	.	.	.
=67	=67	=67	=67
16AALL	2dd [2bb-	8.aaL	.
16A	.	.	.
16G#	.	.	.
16AJJ	.	16aak	.
16G#LL	.	8.ggn	.
16A	.	.	.
16G#	.	.	.
16AJJ	.	16ff#Jk	.
16AALL	8.bb-L]	2ee [2gg	.
16A	.	.	.
16G#	.	.	.
16AJJ	16ccc#k	.	.
16G#LL	8.ddd	.	.
16A	.	.	.
16G#	.	.	.
16AJJ	16bb-Jk	.	.
=68	=68	=68	=68
16AALL	[2aa 2cc#	8.ggL]	.
16A	.	.	.
16G#	.	.	.
16AJJ	.	16ggk	.
16G#LL	.	8.ffn	.
16A	.	.	.
16G#	.	.	.
16AJJ	.	16eeJk	.
16AALL	8.aaL]	2dd [2ff	.
16A	.	.	.
16G#	.	.	.
16AJJ	16ccc#k	.	.
16G#LL	8.ddd	.	.
16A	.	.	.
16G#	.	.	.
16AJJ	16aaJk	.	.
=69	=69	=69	=69
16AALL	2b- [2gg	8.ffL]	.
16A	.	.	.
16G#	.	.	.
16AJJ	.	16ffk	.
16G#LL	.	8.ee	.
16A	.	.	.
16G#	.	.	.
16AJJ	.	16ddJk	.
16AALL	8.ggL]	2cc# 2ee	.
16A	.	.	.
16G#	.	.	.
16AJJ	16aak	.	.
16G#LL	8.bb-	.	.
16A	.	.	.
16G#	.	.	.
16AJJ	16ggJk	.	.
=70	=70	=70	=70
16DLL	4ff	4dd	.
16F	.	.	.
16A	.	.	.
16dJJ	.	.	.
16fLL	8ryy	8r	.
16e	.	.	.
16d	16ryy	16r	.
16cnJJ	16ff	16dd	.
16BnLL	4ddd	4ff	.
16c	.	.	.
16d	.	.	.
16cJJ	.	.	.
16BLL	(8.ffTL	4dd	.
16Gn	.	.	.
16A	.	.	.
16BJJ	32eeLL	.	.
.	32ffJJJ	.	.
=71	=71	=71	=71
16cLL	4ee)	4cc	.
16B	.	.	.
16c	.	.	.
16dJJ	.	.	.
16eLL	8ryy	8r	.
16d	.	.	.
16c	16ryy	16r	.
16BJJ	16ee	16cc	.
16ALL	4ccc	4ee	.
16B	.	.	.
16c	.	.	.
16BJJ	.	.	.
16ALL	(8.eetL	4cc	.
16F	.	.	.
16G	.	.	.
16AJJ	32ddLL	.	.
.	32eeJJJ	.	.
=72	=72	=72	=72
16BLL	4dd)	4b	.
16A	.	.	.
16B	.	.	.
16cJJ	.	.	.
16dLL	8ryy	8r	.
16c	.	.	.
16B	16ryy	16r	.
16AJJ	16dd	16b	.
16G#LL	4bb	4dd	.
16A	.	.	.
16B	.	.	.
16AJJ	.	.	.
16G#LL	(8.ddTL	4b	.
16E	.	.	.
16F#	.	.	.
16G#JJ	32ccLL	.	.
.	32ddJJJ	.	.
*	*v	*v	*
=73	=73	=73
4A	16ccLL	.
.	16a	.
.	16cc	.
.	16eeJJ	.
4GGn 4Gn	16eLL	.
.	16gn	.
.	16b	.
.	16eeJJ	.
4FF# 4F#	16eLL	.
.	16a	.
.	16cc	.
.	16eeJJ	.
4FFn 4Fn	16d#LL	.
.	16a	.
.	16cc	.
.	16dd#JJ)	.
=74	=74	=74
!	!LO:TX:i:a:t=legato	!
4EE 4E	16eeLL<	.
.	16e	.
.	16g#	.
.	16bJJ	.
8r	16eeLL	.
.	16g#	.
16r	16b	.
16E	16eeJJ	.
4e	16gg#LL	.
.	16b	.
.	16ee	.
.	16gg#JJ	.
(8.G#tL	16bbLL	.
.	16gg#	.
.	16ee	.
32F#LL	16ddnJJ	.
32G#JJJ	.	.
=75	=75	=75
4A)	16ccLL	.
.	16a	.
.	16cc	.
.	16eeJJ	.
8r	16aaLL	.
.	16cc	.
16r	16ee	.
16AA	16aaJJ	.
4A	16cccLL	.
.	16aa	.
.	16ee	.
.	16ccJJ	.
(8.D#tL<	16aaLL	.
.	16ff#	.
.	16cc	.
32C#LL	16aJJ	.
32D#JJJ	.	.
=76	=76	=76
4E)	16g#LL	.
.	16e	.
.	16g#	.
.	16bJJ	.
8r	16eeLL	.
.	16g#	.
16r	16b	.
16E	16eeJJ	.
4e	16gg#LL	.
.	16b	.
.	16ee	.
.	16gg#JJ	.
(8.G#tL	16bbLL	.
.	16gg#	.
.	16ee	.
32F#LL	16ddnJJ	.
32G#JJJ	.	.
=77	=77	=77
4A)	16ccLL	.
.	16a	.
.	16cc	.
.	16eeJJ	.
8r	16aaLL	.
.	16cc	.
16r	16ee	.
16AA	16aaJJ	.
4A	16cccLL	.
.	16aa	.
.	16ee	.
.	16ccJJ	.
(8.D#tL<	16aaLL	.
.	16ff#	.
.	16cc	.
32C#LL	16aJJ	.
32D#JJJ	.	.
=78	=78	=78
4E)	16g#LL<	.
.	16b	.
.	16ee	.
.	16g#JJ	.
4FFn 4Fn	16aLL	.
.	16b	.
.	16dd#	.
.	16aJJ	.
4EE 4E	16g#LL<	.
.	16b	.
.	16ee	.
.	16g#JJ	.
4FF 4F	16aLL	.
.	16b	.
.	16dd#	.
.	16aJJ	.
=79	=79	=79
4EE 4E	8g# 8b 8ee	.
.	16eLL	.
.	16d#JJ	.
4r	16eLL	.
.	16f	.
.	16f#	.
.	16gnJJ	.
2r	16g#LL	.
.	16a	.
.	16b-	.
.	16bnJJ	.
.	16ccLL	.
.	16cc#	.
.	16ddn	.
.	16dd#JJ	.
=80	=80	=80
.	16dd#qq	.
8A 8c 8eL	4ee	.
8A 8c 8e	.	.
8A 8c 8e	8.eeL	.
8A 8c 8eJ	.	.
.	16eeJk	.
8A 8c 8eL	4ee	.
8A 8c 8e	.	.
8A 8c 8e	8.ccL	.
8A 8c 8eJ	.	.
.	16aJk	.
=81	=81	=81
.	16aqq	.
8A 8B 8d 8eL	4g#	.
8A 8B 8d 8e	.	.
8A 8B 8d 8e	2g#	.
8A 8B 8d 8eJ	.	.
8A 8B 8d 8eL	.	.
8A 8B 8d 8e	.	.
8A 8B 8d 8e	(8.ddL	.
8A 8B 8d 8eJ	.	.
.	16bJk	.
=82	=82	=82
8A 8c 8eL	4ee)	.
8A 8c 8e	.	.
8A 8c 8e	8.eeL	.
8A 8c 8eJ	.	.
.	16eeJk	.
8A 8c 8eL	(8eeL	.
8A 8c 8e	16ffL	.
.	16eeJJ	.
8A 8c 8e	16ddLL	.
.	16cc	.
8A 8c 8eJ	16b	.
.	16aJJ)	.
=83	=83	=83
.	16aqq	.
8A 8B 8d 8eL	4g#	.
8A 8B 8d 8e	.	.
8A 8B 8d 8e	2g#	.
8A 8B 8d 8eJ	.	.
8A 8B 8d 8eL	.	.
8A 8B 8d 8e	.	.
8A 8B 8d 8e	(8.ddL	.
8A 8B 8d 8eJ	.	.
.	16bJk)	.
=84	=84	=84
8A 8c 8e	8.cc (8.eeL	.
8AL	.	.
.	16a 16ccJk)	.
8E	4cc 4ee	.
8CJ	.	.
4AA	8r	.
.	8a' 8cc'L	p
4r	8b' 8dd'	.
.	8cc' 8ee'J	.
=85	=85	=85
*^	*	*
4ryy	4r	4cc# (4ee	.
[4d	(4F 4A (4c	8dd 8ff)	.
.	.	8r	.
8d]	8G) 8B	8r	.
8ryy	8r	8g' 8b'L	.
4ryy	4r	8a' 8ccn'	.
.	.	8b' 8dd'J	.
=86	=86	=86	=86
4ryy	4r	4b (4dd#	.
[4c	(4E 4G 4B	8cc 8ee)	.
.	.	8r	.
8c]	8F) 8A	8r	.
8ryy	8r	8f' 8a'L	.
4ryy	4r	8g#' 8b'	.
.	.	8a' 8cc'J	.
*v	*v	*	*
=87	=87	=87
4r	(8.ccL	.
.	16bk	.
4D 4F (4B	8.ff	.
.	16ddnJk	.
4E 4A 4c	8.ccL	.
.	16eek	.
4E 4G# 4B)	8.dd	.
.	16bJk)	.
=88	=88	=88
4AA 4A	16ccLL	f
.	16aa	.
.	16cc	.
.	16aaJJ	.
8.AL	16ccLL	.
.	16aa	.
.	16cc	.
16AJk	16aaJJ	.
4A	16ccLL	.
.	16aa	.
.	16cc	.
.	16aaJJ	.
(8.FL	16ccLL	.
.	16aa	.
.	16cc	.
16D#Jk	16aaJJ	.
=89	=89	=89
8FL	16bLL	.
.	16aa	.
8EJ)	16b	.
.	16aaJJ	.
2E	16bLL	.
.	16aa	.
.	16b	.
.	16aaJJ	.
.	16bLL	.
.	16ggn	.
.	16b	.
.	16ggJJ	.
(8.GnL	16b-LL	.
.	16gg	.
.	16b-	.
16EJk	16ggJJ	.
=90	=90	=90
4F)	16aLL	.
.	16gg	.
.	16a	.
.	16ggJJ	.
8.FL	16aLL	.
.	16gg	.
.	16a	.
16FJk	16ggJJ	.
(8FL	16aLL	.
.	16ff	.
16GL	16a	.
16FJJ	16ffJJ	.
16ELL	16aLL	.
16D	16ff	.
16C	16a	.
16BBJJ	16ffJJ	.
=91	=91	=91
8DL	16gLL	.
.	16ff	.
8CJ)	16g	.
.	16ffJJ	.
[4C	16gLL	.
.	16ff	.
.	16g	.
.	16ffJJ	.
8.CL]	16gLL	.
.	16ee	.
.	16g	.
(16Gk	16eeJJ	.
8.E	16gLL	.
.	16ee	.
.	16g	.
16C#Jk	16eeJJ	.
=92	=92	=92
8EL	16fLL	.
.	16ee	.
8D)	16f	.
.	16eeJJ	.
8D'	16fLL	.
.	16ee	.
8D'J	16f	.
.	16eeJJ	.
(8DL	16fLL	.
.	16dd	.
16EL	16f	.
16DJJ	16ddJJ	.
16CnLL	16fLL	.
16BB	16dd	.
16AA	16f	.
16GG#JJ	16ddJJ	.
=93	=93	=93
8BBL	16eLL	.
.	16dd	.
8AA)	16e	.
.	16ddJJ	.
8AA'	16eLL	.
.	16cc	.
8AA'J	16e	.
.	16ccJJ	.
(8AAL	16eLL	.
.	16b	.
8GGnX)	16e	.
.	16bJJ	.
(8GG	16e 16bLL>	.
.	16ee	.
8GJ)	16e 16b	.
.	16eeJJ	.
=94	=94	=94
*	*^	*
4F#'	(8eeL	4a	.
.	8dd#J)	.	.
4Fn'	8r	8r	.
.	8ddn	8a	.
!	!LO:TX:i:t=calando	!	!
4E'	(8ddL	4a	.
.	8cc#J)	.	.
4E'	8r	8r	.
.	8ccn	8a	.
=95	=95	=95	=95
4D'	(8a#L	4an	p
.	8bJ)	.	.
4E'	8r	8r	.
.	8cc#	8a	.
4F'	8r	8r	.
.	8dd	8a	.
4C#'	8r	8r	.
.	8ee	8a	.
=96	=96	=96	=96
(4D	(8gg	2.a	.
.	4ff	.	.
4E	.	.	.
.	8ee)	.	.
4F	(8ddL	.	.
.	8ccn	.	.
4D#)	8b	4f#	.
.	8aJ)	.	.
*	*v	*v	*
=97	=97	=97
16ELL	4g# 4b 4ee	f
16B	.	.
16G#	.	.
16BJJ	.	.
(16ELL	8.eeL	.
16B	.	.
16G#	.	.
16BJJ	16eeJk	.
16ELL	4ee	.
16c	.	.
16A	.	.
16cJJ	.	.
16ELL	4ee	.
16dn	.	.
16B	.	.
16dJJ	.	.
=98	=98	=98
*	*^	*
16ELL	(4.aa	1a	.
16c	.	.	.
16A	.	.	.
16cJJ	.	.	.
16ELL	.	.	.
16c	.	.	.
16A	16ggLL	.	.
16cJJ	16ffnJJ	.	.
16ELL	4ee	.	.
16c	.	.	.
16A	.	.	.
16cJJ	.	.	.
16ELL	4dd#)	.	.
16c	.	.	.
16A	.	.	.
16cJJ	.	.	.
*	*v	*v	*
=99	=99	=99
16ELL	4g#: 4b: 4ee:	.
16B	.	.
16G#	.	.
16BJJ	.	.
16ELL	8.eeL	p
16B	.	.
16G#	.	.
16BJJ	16eeJk	.
16ELL	4ee	.
16c	.	.
16A	.	.
16cJJ	.	.
16ELL	4ee	.
16dn	.	.
16B	.	.
16dJJ	.	.
=100	=100	=100
*	*^	*
16ELL	(4.aa	1a	.
16c	.	.	.
16A	.	.	.
16cJJ	.	.	.
16ELL	.	.	.
16c	.	.	.
16A	16ggnLL	.	.
16cJJ	16ffJJ	.	.
16ELL	4ee	.	.
16c	.	.	.
16A	.	.	.
16cJJ	.	.	.
16ELL	4dd#)	.	.
16c	.	.	.
16A	.	.	.
16cJJ)	.	.	.
*	*v	*v	*
=101	=101	=101
4E 4G# 4B	(16eeLL	f
.	16b	.
.	16g#	.
.	16bJJ	.
8r	16eeLL	.
.	16cc	.
8AA 8A	16a	.
.	16ccJJ	.
4EE 4E	16eeLL	.
.	16b	.
.	16g#	.
.	16bJJ	.
8r	16eeLL	.
.	16cc	.
8AA 8A	16a	.
.	16ccJJ	.
=102	=102	=102
*	*^	*
4EE 4E	2ryy	16eeLL	.
.	.	16b	.
.	.	16g#	.
.	.	16bJJ	.
8r	.	16eeLL	.
.	.	16cc	.
8AA 8A	.	16a	.
.	.	16ccJJ	.
8EE 8EL	16bLL	8g#L	.
.	16ee	.	.
8AA 8A	16cc	8a	.
.	16eeJJ	.	.
8EE 8E	16bLL	8g#	.
.	16ee	.	.
8AA 8AJ	16cc	8aJ	.
.	16eeJJ	.	.
=103	=103	=103	=103
4EE 4E	4b)	4g#	.
4EE 4E	4e: 4g#: 4b: 4ee:	2.ryy	.
4EE 4E	8r	.	.
.	8ee'L	.	p
4r	8ff#'	.	.
.	8gg#'J	.	.
*	*v	*v	*
*clefG2	*	*
=104	=104	=104
(8c 8eL	(16aaLL	.
.	16bb	.
8d 8f	16gg#	.
.	16bbJJ	.
8c 8e	16aaLL	.
.	16bb	.
8d 8fJ	16gg#	.
.	16bbJJ	.
4c) 4e	16aaLL	.
.	16bb	.
.	16ggn	.
.	16aaJJ	.
4r	16ffnLL	.
.	16gg	.
.	16ee	.
.	16ffJJ	.
=105	=105	=105
(8f 8aL	16ddLL	.
.	16ee	.
8g 8b-	16cc#	.
.	16eeJJ	.
8f 8a	16ddLL	.
.	16ee	.
8g 8b-J	16cc#	.
.	16eeJJ	.
4f) 4a	16ddLL	.
.	16ee	.
.	16ccn	.
.	16ddJJ	.
4r	16bLL	.
.	16cc	.
.	16a	.
.	16bJJ	.
*clefF4	*	*
=106	=106	=106
8E 8BnX 8dL	16g#LL	.
.	16b	.
8F 8B 8d	16a	.
.	16bJJ	.
8E 8B 8d	16g#LL	.
.	16b	.
8F 8B 8dJ	16a	.
.	16bJJ	.
4E 4B 4d	16g#LL	.
.	16b	.
.	16f	.
.	16bJJ	.
4r	16eLL	.
.	16b	.
.	16d	.
.	16bJJ	.
=107	=107	=107
4AA 4A	16cLL)	.
.	(16e	.
.	16d#	.
.	16eJJ	.
4r	16fLL	.
.	16e	.
.	16g#	.
.	16eJJ	.
2r	16aLL	.
.	16e	.
.	16b	.
.	16eJJ	.
.	16ccLL	.
.	16e	.
.	16ddn	.
.	16eJJ)	.
*clefG2	*	*
=108	=108	=108
8c 8aL	(16eeLL	.
.	16ff	.
8c 8a	16dd#	.
.	16ffJJ	.
8c 8a	16eeLL	.
.	16ff	.
8c 8aJ	16dd#	.
.	16ffJJ	.
4c 4a	16eeLL	.
.	16aa	.
.	16gg#	.
.	16aaJJ	.
4r	16bbLL	.
.	16aa	.
.	16gg#	.
.	16aaJJ	.
*clefF4	*	*
=109	=109	=109
*^	*	*
4r	2.D	16ggnLL	.
.	.	16ff	.
.	.	16ee	.
.	.	16ffJJ	.
4F	.	16eeLL	.
.	.	16ddn	.
.	.	16cc#	.
.	.	16ddJJ	.
[2B-	.	16ccnLL	.
.	.	16b-	.
.	.	16a	.
.	.	16b-JJ	.
.	4D	16aLL	.
.	.	16b-	.
.	.	16cc	.
.	.	16ddJJ)	.
=110	=110	=110	=110
4B-]	2.C	(16ffLL	.
.	.	16ee	.
.	.	16dd#	.
.	.	16eeJJ	.
4G#	.	16ddnLL	.
.	.	16cc	.
.	.	16bn	.
.	.	16ccJJ	.
[2A	.	16bLL	.
.	.	16a	.
.	.	16g#	.
.	.	16aJJ	.
.	4C	16g#LL	.
.	.	16a	.
.	.	16b	.
.	.	16ccJJ	.
=111	=111	=111	=111
4A]	4BBn	16ddLL	.
.	.	16ff	.
.	.	16cc	.
.	.	16ffJJ	.
2d	4F	16bLL	.
.	.	16ff	.
.	.	16a	.
.	.	16ffJJ	.
.	4E	16g#LL	.
.	.	16b	.
.	.	16f	.
.	.	16bJJ	.
4Bn	4G#	16eLL	.
.	.	16b	.
.	.	16d	.
.	.	16bJJ	.
=112	=112	=112	=112
4A	4A	)16cLL	.
.	.	(16cc	.
.	.	16b	.
.	.	16ccJJ	.
2E	4AA	16ddLL	.
.	.	16cc	.
.	.	16b	.
.	.	16aJJ	.
.	4BB	16g#LL)	.
.	.	(16dd	.
.	.	16cc#	.
.	.	16ddJJ	.
4E 4G#	4D	16eeLL	.
.	.	16dd	.
.	.	16ccn	.
.	.	16bJJ	.
*v	*v	*	*
=113	=113	=113
4C 4E 4A	16aLL)	.
.	(16b	.
.	16cc	.
.	16bJJ	.
4r	16ccLL	.
.	16dd#	.
.	16ee	.
.	16dd#JJ	.
4r	16eeLL	.
.	16gg#	.
.	16aa	.
.	16gg#JJ	.
4C# 4E 4A	16aaLL	.
.	16ggn	.
.	16ff	.
.	16eeJJ	.
=114	=114	=114
(16DLL	16ffLL	.
16A	16gg	.
16F	16aa	.
16AJJ	16ffJJ	.
16DLL	16ddnLL	.
16A	16ee	.
16F	16ff	.
16AJJ	16ddJJ	.
16DLL	16bLL	.
16B	16cc	.
16F	16dd	.
16BJJ	16bJJ	.
16DLL	16eeLL	.
16B	16ff	.
16F	16dd	.
16BJJ	16bJJ	.
=115	=115	=115
16ELL	16dd#LL	.
16c	16ee	.
16A	16ff	.
16cJJ	16eeJJ	.
16ELL	16ddnLL	.
16c	16cc	.
16A	16b	.
16cJJ	16aJJ)	.
16ELL	2btt	.
16d	.	.
16G#	.	.
16dJJ	.	.
16ELL	.	.
16d	.	.
16G#	.	.
16dJJ	.	.
.	(32aqLLL	.
.	32bqJJJ)	.
=116	=116	=116
4A 4c)	16r	.
.	(16aaLL	p
.	16gg	.
.	16ffJJ	.
4r	16eeLL	.
.	16ff	.
.	16dd#	.
.	16ffJJ	.
4r	16eeLL	.
.	16ff	.
.	16dd#	.
.	16ffJJ	.
*clefG2	*	*
8g#'L	16eeLL	.
.	16ff	.
8e'J	16ddn	.
.	16eeJJ	.
=117	=117	=117
4a	16ccLL)	.
.	(16aa	.
.	16gg	.
.	16ffJJ	.
4r	16eeLL	.
.	16ff	.
.	16dd#	.
.	16ffJJ	.
4r	16eeLL	.
.	16ff	.
.	16dd#	.
.	16ffJJ	.
8g#'L	16eeLL	.
.	16ff	.
8e'J	16ddn	.
.	16eeJJ	.
=118	=118	=118
4a	16ccLL	.
.	16dd	.
.	16ee	.
.	16ddJJ	.
4r	16ccLL<	.
.	16b	.
.	16a	.
.	16g#JJ	.
*clefF4	*	*
2C 2E 2A	16aLL	.
.	16b	.
.	16cc	.
.	16bJJ	.
.	16aLL	.
.	16gn	.
.	16f	.
.	16eJJ	.
=119	=119	=119
2D 2F	16dLL	.
.	16B-	.
.	16f	.
.	16dJJ	.
.	16b-LL<	.
.	16f	.
.	16dd	.
.	16b-JJ	.
2D 2F 2G# 2Bn	16ffLL	.
.	16dd	.
.	16gg#	.
.	16ffJJ	.
.	16bbnLL	.
.	16gg#	.
.	16ddd	.
.	16bbJJ	.
=120	=120	=120
*^	*	*
4ryy	4C 4E 4A	16eeeLL	.
.	.	16ccc	.
.	.	16aa	.
.	.	16eeJJ	.
2A	4D	16ggnLL	.
.	.	16ff	.
.	.	16ee	.
.	.	16ddJJ	.
.	4E	4cc)	.
4G#	4E	4bt	.
.	.	(16aqLL	.
.	.	16bqJJ)	.
*v	*v	*	*
*clefG2	*	*
=121	=121	=121
16r	4a	p
(16aLL	.	.
16gn	.	.
16fJJ	.	.
16eLL	4r	.
16f	.	.
16d#	.	.
16fJJ	.	.
16eLL	4r	.
16f	.	.
16d#	.	.
16fJJ	.	.
16eLL	8b' 8gg#'L	.
16f	.	.
16dn	8ee'J	.
16eJJ	.	.
=122	=122	=122
16cLL)	4cc 4aa	.
(>16a	.	.
16gn	.	.
16fJJ	.	.
16eLL	4r	.
16f	.	.
16d#	.	.
16fJJ	.	.
16eLL	4r	.
16f	.	.
16d#	.	.
16fJJ	.	.
16eLL	8b' 8gg#'L	.
16f	.	.
16dn	8ee'J	.
16eJJ	.	.
*clefF4	*	*
=123	=123	=123
*	*^	*
16cLL	4ryy	4cc 4aa	.
16d	.	.	.
16B	.	.	.
16cJJ	.	.	.
16ALL	(8.eetL	4r	.
16B	.	.	.
16G	.	.	.
16AJJ	32ddLL	.	.
.	32eeJJJ	.	.
16FLL	[2aa)	4r	.
16G	.	.	.
16E	.	.	.
16FJJ	.	.	.
16DLL	.	(8.ccT>L	.
16E	.	.	.
16C	.	.	.
16DJJ	.	32bLL	.
.	.	32ccJJJ)	.
=124	=124	=124	=124
16BBLL	4aa]	2.dd	.
16C	.	.	.
16AA	.	.	.
16BBJJ	.	.	.
16GG#LL	(8.bbL	.	<
16AA	.	.	.
16FF#	.	.	.
16GG#JJ	16cccJk	.	.
16EELL	4ddd)	.	.
16FFn	.	.	.
16DD	.	.	.
16EEJJ	.	.	.
16CCLL	(8.gg#tL	[4ee	.
16DD	.	.	.
16BBB	.	.	.
16DDJJ	32ff#LL	.	.
.	32gg#JJJ	.	.
=125	=125	=125	=125
8CC)	16aaLL	16ee]	f
.	16gg#	8.ryy	.
8r	16aa	.	.
.	16eeJJ)	.	.
8DD	(16ggnLL	8b	.
.	16ff	.	.
8r	16ee	8ryy	.
.	16ddJJ)	.	.
8EE	(16ccLL	16a	.
.	16dd	8.ryy	.
8r	16ee	.	.
.	16ccJJ)	.	.
8EE	(16bLL	16g#	.
.	16cc	8.ryy	.
8r	16dd	.	.
.	16bJJ)	.	.
*	*v	*v	*
=126	=126	=126
*^	*	*
1D 1G# 1B	1F	(16dddLL	.
.	.	16fff	.
.	.	16bb	.
.	.	16dddJJ	.
.	.	16gg#LL	.
.	.	16bb	.
.	.	16ff	.
.	.	16gg#JJ	.
.	.	16ddLL	.
.	.	16ff	.
.	.	16b	.
.	.	16ddJJ	.
.	.	16g#LL	.
.	.	16b	.
.	.	16f	.
.	.	16g#JJ)	.
*v	*v	*	*
=127	=127	=127
(16cLL	1cc 1dd# 1ff# 1aa 1ccc	.
16d#	.	.
16A	.	.
16cJJ	.	.
16F#LL	.	.
16A	.	.
16D#	.	.
16F#JJ	.	.
16CLL	.	.
16D#	.	.
16AA	.	.
16CJJ	.	.
16FF#LL	.	.
16AA	.	.
16DD#	.	.
16FF#JJ	.	.
=128	=128	=128
4EE)	16r	.
.	(16aaLL	.
.	16ee	.
.	16ccJJ	.
16r	16aLL	.
(16ELL	16e	.
16C	16c	.
16AAJJ	16AJJ)	.
4EE)	4e	.
4E	4e 4g# 4b 4ee	.
=129	=129	=129
(>16ALL	4a	.
16B	.	.
16c	.	.
16BJJ	.	.
16ALL	8.a 8.ccL>	.
16Gn	.	.
16Fn	.	.
16EJJ	16a 16ccJk	.
16FLL	4a 4cc	.
16G	.	.
16A	.	.
16GJJ	.	.
16FLL	8.a 8.ccL>	.
16E	.	.
16D	.	.
16CJJ	16a 16ccJk	.
=130	=130	=130
16DLL	4a 4b	.
16E	.	.
16F	.	.
16EJJ	.	.
16DLL<	8.a 8.bL	.
16BB	.	.
16C	.	.
16DJJ	16a 16bJk	.
16ELL	4g# 4b 4ee	.
16D#	.	.
16E	.	.
16D#JJ	.	.
16ELL<	8.g# 8.b 8.eeL	.
16Dn	.	.
16C	.	.
16BBJJ	16g# 16b 16eeJk	.
=131	=131	=131
16AALL	4a 4cc	.
16BB	.	.
16C	.	.
16BBJJ	.	.
16AALL	8.a 8.cc 8.aaL	.
16GG	.	.
16FF	.	.
16EEJJ	16a 16cc 16aaJk	.
16FFLL	4a 4cc 4aa	.
16GG	.	.
16AA	.	.
16GGJJ	.	.
16FFLL	8.a 8.cc 8.aaL	.
16EE	.	.
16DD	.	.
16CCJJ	16a 16cc 16aaJk	.
=132	=132	=132
16DDLL	4b 4ff 4aa	.
16EE	.	.
16FF	.	.
16EEJJ	.	.
16DDLL	8.b 8.ff 8.aaL	.
16BBB	.	.
16CC	.	.
16DDJJ	16b 16ff 16aaJk	.
16EELL	4b 4ee 4gg#	.
16DD#	.	.
16EE	.	.
16DD#JJ	.	.
16EELL	8.b 8.ee 8.gg#L	.
16DD#	.	.
16CCn	.	.
16BBBJJ	16b 16ee 16gg#Jk	.
=133	=133	=133
4AAA)	4cc 4ee 4aa	.
4AAA 4AA	4a 4cc 4ee	.
4AAA 4AA	4e 4a 4cc	.
4r	4r	.
==:|!	==:|!	==:|!
*-	*-	*-
!!!RDF**kern: > = above
!!!RDF**kern: < = below
!!!YOR: Alte Mozart-Ausgabe, Band 20, Breitkopf &amp; H&auml;rtel 1877-1883.
!!!YOY: 1878
!!!YEC: 2018 Craig Stuart Sapp
!!!YEM: Licence: (CC BY-NC-SA 4.0) https://creativecommons.org/licenses/by-nc-sa/4.0
!!!YER: 2018
!!!ENC: Craig Stuart Sapp
!!!END: 2009/09/28
!!!EED: Craig Stuart Sapp
!!!EEV: 2018/06/16
!!!EFL: 34/69
!!!AGN: piano sonata
!!!AFR: sonata-allegro
!!!title: @{OTL}, K 310 (300d), mvmt. @{OMV}
